X: 16406
T: Gypsy Princess
R: barndance
M: 4/4
K: Gmajor
|:GA|B2BA B2BA|GBAG E2D2|GABc d2ed|d2ge dBGA|
B2BA B2BA|GBAG E2D2|gfge dBGA|B2AB G2:|
|:Bc|d3d d2d2|dged dBAB|e3e e2e2|edef gfge|
d2{e}dB d2d2|dBGA Bdef|gfge dBGA|B2AB G2:|

